dist/img/sprites/icon_metr2.svg

<svg width="25" height="25" viewBox="0 0 25 25" fill="none" xmlns="http://www.w3.org/2000/svg">
<g clip-path="url(#clip0_55_693)">
<path d="M24.1639 3.25399H3.85745C3.77979 3.2539 3.70287 3.26913 3.6311 3.29881C3.55933 3.32849 3.49412 3.37204 3.4392 3.42695C3.38428 3.48187 3.34073 3.54708 3.31105 3.61885C3.28137 3.69062 3.26614 3.76754 3.26623 3.84521V24.4091C3.26617 24.4868 3.28142 24.5637 3.31111 24.6354C3.34081 24.7071 3.38436 24.7723 3.43927 24.8272C3.49419 24.8821 3.55939 24.9256 3.63115 24.9553C3.70291 24.985 3.77981 25.0002 3.85745 25.0001H19.5783C19.6559 25.0001 19.7328 24.9849 19.8045 24.9552C19.8762 24.9255 19.9414 24.882 19.9963 24.8271C20.0512 24.7722 20.0947 24.7071 20.1244 24.6353C20.154 24.5636 20.1693 24.4867 20.1692 24.4091V19.1594H24.164C24.2416 19.1595 24.3185 19.1443 24.3902 19.1146C24.462 19.0849 24.5271 19.0414 24.582 18.9865C24.6369 18.9316 24.6804 18.8664 24.7101 18.7947C24.7398 18.723 24.755 18.6461 24.755 18.5685V3.84521C24.7551 3.76756 24.7398 3.69066 24.7102 3.61891C24.6805 3.54715 24.637 3.48195 24.5821 3.42703C24.5272 3.37211 24.462 3.32856 24.3903 3.29887C24.3186 3.26918 24.2417 3.25393 24.164 3.25399H24.1639ZM23.5727 17.9773H19.5782C19.5006 17.9772 19.4237 17.9925 19.3519 18.0221C19.2802 18.0518 19.215 18.0954 19.1601 18.1503C19.1052 18.2052 19.0617 18.2704 19.032 18.3422C19.0024 18.4139 18.9872 18.4908 18.9873 18.5685V23.8179H4.44833V4.43616H23.5727V17.9773ZM1.84417 4.33193C2.11211 4.33193 2.33089 4.11281 2.33089 3.84521C2.33089 3.57734 2.11211 3.35849 1.84417 3.35849H0.498896C0.231228 3.35842 0.0121765 3.57734 0.0121765 3.84521C0.0121765 4.11281 0.231228 4.33193 0.498896 4.33193H0.679787V23.9224H0.498896C0.231228 23.9224 0.0121765 24.1412 0.0121765 24.4091C0.0121765 24.6767 0.231228 24.8958 0.498896 24.8958H1.84417C2.11211 24.8958 2.33089 24.6767 2.33089 24.4091C2.33089 24.1412 2.11211 23.9224 1.84417 23.9224H1.64949V4.33193H1.84417ZM3.85738 2.31898C4.12499 2.31898 4.3441 2.09993 4.3441 1.83199V1.63732H23.6006V1.83199C23.6006 2.09993 23.8197 2.31898 24.0873 2.31898C24.3552 2.31898 24.574 2.09993 24.574 1.83199V0.48672C24.574 0.219119 24.3552 0 24.0873 0C23.8197 0 23.6006 0.219119 23.6006 0.48672V0.66761H4.3441V0.48672C4.3441 0.219119 4.12499 0 3.85738 0C3.58944 0 3.37039 0.219119 3.37039 0.48672V1.83199C3.37029 1.89597 3.38281 1.95935 3.40724 2.01848C3.43168 2.07761 3.46755 2.13134 3.51279 2.17658C3.55803 2.22183 3.61176 2.25769 3.67089 2.28213C3.73003 2.30657 3.7934 2.31909 3.85738 2.31898Z" fill="white"/>
<path d="M9.72212 16.9971V13.2703C10.0874 12.8114 10.4592 12.575 10.8208 12.575C11.0467 12.575 11.1998 12.6376 11.2868 12.7663C11.3562 12.8671 11.4361 13.0897 11.4361 13.5623V16.9971H12.6771V13.2703C13.0458 12.8079 13.4177 12.575 13.783 12.575C14.0052 12.575 14.1548 12.6376 14.2418 12.7663C14.3113 12.8671 14.3912 13.0897 14.3912 13.5623V16.9971H15.636V13.5276C15.636 11.8484 14.7007 11.4974 13.9116 11.4974C13.6612 11.4974 13.4074 11.5564 13.1501 11.6712C12.9344 11.7686 12.6947 11.9632 12.4201 12.2621C12.1523 11.7544 11.6621 11.4974 10.9563 11.4974C10.5115 11.4974 10.0977 11.6643 9.71866 11.9979V11.612H8.47415V17.0007H9.72212V16.9971ZM17.7218 10.0266H16.3765C16.4529 9.95368 16.5605 9.85631 16.7136 9.7277C17.103 9.40435 17.3568 9.15393 17.4923 8.96618C17.6382 8.76112 17.7149 8.52482 17.7149 8.25722C17.7149 7.95798 17.6107 7.70443 17.4088 7.50256C17.2072 7.30103 16.9221 7.2002 16.5606 7.2002C16.2234 7.2002 15.9418 7.29757 15.7298 7.49217C15.5176 7.68691 15.3959 7.94766 15.368 8.26754L15.3542 8.45536H16.1227L16.133 8.29538C16.1433 8.1458 16.1887 8.0381 16.2651 7.96864C16.3452 7.89911 16.4388 7.86407 16.5536 7.86407C16.6892 7.86407 16.7865 7.89537 16.8526 7.96144C16.9186 8.02778 16.9499 8.12142 16.9499 8.24663C16.9499 8.40307 16.9048 8.53521 16.8109 8.66035C16.7032 8.79935 16.4945 8.99749 16.1887 9.24091C15.8547 9.50858 15.6288 9.73117 15.5004 9.92238C15.3612 10.124 15.2916 10.343 15.2916 10.569V10.7428H17.7218L17.7218 10.0266Z" fill="white"/>
</g>
<defs>
<clipPath id="clip0_55_693">
<rect width="25" height="25" fill="white"/>
</clipPath>
</defs>
</svg>

<svg width="25" height="25" viewBox="0 0 25 25" fill="none" xmlns="http://www.w3.org/2000/svg"><g clip-path="url(#clip0_55_693)" fill="#fff"><path d="M24.164 3.254H3.857a.59.59 0 00-.59.591V24.41a.59.59 0 00.59.591h15.721a.591.591 0 00.591-.59v-5.25h3.995a.59.59 0 00.591-.591V3.845a.592.592 0 00-.591-.591zm-.591 14.723h-3.995a.592.592 0 00-.59.591v5.25H4.447V4.436h19.125v13.541zM1.844 4.332a.488.488 0 000-.973H.5a.488.488 0 00-.487.486c0 .268.22.487.487.487h.18v19.59H.5a.488.488 0 00-.487.487c0 .268.22.487.487.487h1.345a.488.488 0 000-.973H1.65V4.331h.195zm2.013-2.013a.488.488 0 00.487-.487v-.195h19.257v.195c0 .268.219.487.486.487a.488.488 0 00.487-.487V.487A.488.488 0 0024.087 0a.488.488 0 00-.486.487v.18H4.344v-.18A.488.488 0 003.857 0a.488.488 0 00-.487.487v1.345a.486.486 0 00.487.487z"/><path d="M9.722 16.997V13.27c.365-.459.737-.695 1.099-.695.226 0 .379.063.466.191.07.101.15.324.15.796v3.435h1.24V13.27c.369-.462.74-.695 1.106-.695.222 0 .372.063.459.191.07.101.15.324.15.796v3.435h1.244v-3.47c0-1.679-.935-2.03-1.724-2.03-.25 0-.505.06-.762.174-.216.098-.455.292-.73.591-.268-.508-.758-.765-1.464-.765-.444 0-.858.167-1.237.5v-.385H8.474v5.389h1.248v-.004zm8-6.97h-1.346c.077-.073.184-.17.338-.3.389-.323.643-.573.778-.76.146-.206.223-.442.223-.71 0-.299-.104-.553-.306-.754-.202-.202-.487-.303-.848-.303-.338 0-.62.098-.831.292a1.15 1.15 0 00-.362.776l-.014.187h.769l.01-.16c.01-.15.056-.257.132-.326a.42.42 0 01.289-.105c.135 0 .233.031.299.097.066.067.097.16.097.286a.66.66 0 01-.14.413c-.107.14-.316.337-.621.58-.334.269-.56.491-.689.682a1.128 1.128 0 00-.208.647v.174h2.43v-.716z"/></g><defs><clipPath id="clip0_55_693"><path fill="#fff" d="M0 0h25v25H0z"/></clipPath></defs></svg>
